X: 5521
T: Burning Bench, The
R: reel
M: 4/4
K: Eminor
|:Beef efge|Beef efgf|bg (3aba ge (3faf|d2fd Ad (3faf|
eBc/B/A BAGF|EAAF GFED|~E3D EAAF|1 ~G2FD E3A:|2 ~G2FD E3F||
|:GFEF GBAG|FAFD FAGF|EDB,D EF (3GBG|FAdf edc/B/A|
GFEF GBAG|FAFD FAGF|EDB,D EGBA|1 ~G2FD E3F:|2 ~G2FD E3A||

